src/assets/bold/lm-3-squares-split-horizontal-bold.svg

<svg width="24" height="24" viewBox="0 0 24 24" fill="none" xmlns="http://www.w3.org/2000/svg" fill="currentColor">
<path d="M17.75 3.75C18.5784 3.75 19.25 4.42157 19.25 5.25V18.75C19.25 19.5784 18.5784 20.25 17.75 20.25H4.25C3.42157 20.25 2.75 19.5784 2.75 18.75V5.25C2.75 4.42157 3.42157 3.75 4.25 3.75H17.75ZM4.25 18.75H7.75V5.25H4.25V18.75ZM14.25 18.75H17.75V5.25H14.25V18.75ZM9.25 18.75H12.75V5.25H9.25V18.75Z" fill="black"/>
</svg>

<svg xmlns="http://www.w3.org/2000/svg" width="24" height="24" fill="currentColor" viewBox="0 0 24 24">
  <path d="M17.75 3.75a1.5 1.5 0 0 1 1.5 1.5v13.5a1.5 1.5 0 0 1-1.5 1.5H4.25a1.5 1.5 0 0 1-1.5-1.5V5.25a1.5 1.5 0 0 1 1.5-1.5h13.5Zm-13.5 15h3.5V5.25h-3.5v13.5Zm10 0h3.5V5.25h-3.5v13.5Zm-5 0h3.5V5.25h-3.5v13.5Z"/>
</svg>
